X:455
T:Derry Reel, The
S:IrTrad; Rob Greenway, 6/97
R: Reel
M: 2/2
L: 1/8
D: Sharon Shannon (1st album)
N: Lays out very nicely on the flute when transposed to G.
K: A
c3B ABcA|~B2cB AFEF|ABce aAgA|(3fga ec BcAB|
c3B ABcA|~B2cB AFEF|1 ABce (3fga ec|BccB A3B:|2 ABce fece|fAgA a3g|
||:~f3e cfaf|geBe afge|~f3e cfaf|gfef f3g|
aecB ABcA|~B2cB AFEF|1 ABce fece|fAgA a3g:|2 ABce (3fga ec|BccB A3B||

